X:1
T:Title
%%score { 1 | ( 2 3 ) }
L:1/8
Q:1/4=116
M:12/8
K:Ab
V:1 treble nm="Grand Piano"
V:2 bass 
V:3 bass 
V:1
 [Ec]3 [Ec]3 [Ec]3- [Ec]2 [Ec] | [Ec][EB][EA] BAF [CE]2 [_C=D] [=CE]3 | E2 B B2 c B3 E3 | %3
w: Chas.~H.~Gabriel * * * *|||
 [CE]2 [CA] [CA]2 [DB] [CA]6 | [Ec]3 [Ec]3 [Ec]3- [Ec]2 [Ec] | %5
w: ||
 [Ec][EB][EA] BAF [CE]2 [_C=D] [=CE]3 | [DF]2 [FA] [Fd]2 [Fd] [Ec]3 [EA]3 | c2 B A2 G [CA]6 | %8
w: |||
 [Fd]2 [Fd] [Fd]2 [Fd] [Fd]3 [FB]3 | [Ec]2 [Ec] [Ec]2 [Ec] [Ec]6 | B2 B B2 c B3 e3 | %11
w: |||
 e2 =d c2 d [Ge]3 _d3 | [Ec]2 [Ec] [Ec]2 [Ec] [Ec]3 [Ec]3 | [Ec]2 [Ec] [EB]2 [_GA] [Fd]6 | %14
w: |||
 [FA]2 [FA] [EG]2 F E3 [Ed]3 | [Ec]2 B A2 G [CA]6 |] %16
w: ||
V:2
 [A,,A,]3 [A,,A,]3 [A,,A,]3- [A,,A,]2 [A,,A,] | %1
 [A,,A,][B,,G,][C,A,] [D,F,D][D,F,D][D,A,D] [A,,A,]2 [A,,A,] [A,,A,]3 | %2
 [E,G,D]2 [E,G,D] [E,G,D]2 [E,G,D] [E,G,D]3 [E,G,D]3 | [A,,A,]2 [A,,E,] [A,,E,]2 [A,,E,] [A,,E,]6 | %4
 [A,,A,]3 [A,,A,]3 [A,,A,]3- [A,,A,]2 [A,,A,] | %5
 [A,,A,][B,,G,][C,A,] [D,F,D][D,F,D][D,A,D] [A,,A,]2 [A,,A,] [A,,A,]3 | %6
 [D,A,]2 [D,A,] [D,A,]2 [D,A,] [A,,A,]3 [C,A,]3 | [E,A,E]2 [E,DE] [E,CE]2 [E,B,D] [A,,A,]6 | %8
 [D,A,]2 [D,A,] [D,A,]2 [D,A,] [D,A,]3 [D,A,]3 | [A,,A,]2 [A,,A,] [A,,A,]2 [A,,A,] [A,,A,]6 | %10
 [E,G,E]2 [E,G,E] [E,G,E]2 [E,A,E] [E,G,E]3[K:treble] [G,B,E]3 | %11
 [B,F]2 [B,F] [B,A]2 [B,A][K:bass] B,3 [G,E]3 | %12
 [A,,A,]2 [A,,A,] [A,,A,]2 [A,,A,] [A,,A,]3 [A,,A,]3 | [A,,A,]2 [A,,A,] [B,,G,]2 [C,A,] [D,A,]6 | %14
 [D,A,]2 [D,A,] [D,A,]2 [D,A,D] [C,A,]3 [B,,G,]3 | [A,,A,]2 [D,F,D] [E,C]2 [E,B,] [A,,E,]6 |] %16
V:3
 x12 | x12 | x12 | x12 | x12 | x12 | x12 | x12 | x12 | x12 | x9[K:treble] x3 | z6[K:bass] E,6 | %12
 x12 | x12 | x12 | x12 |] %16

